X: 14090
T: Fretless Flute Song, The
R: waltz
M: 3/4
K: Gminor
|:e2b2a2|a4g2|B2g3B|f6|
e2f2e2|d2-dc d2|B2G2F2|G6|
e2b2a2|a4g2|B2g3B|f6|
e2b3e|d4d2|B2E2B2|G6:|
b2c'3b|a2-ag f2|a2c'3b|a4g2|
a4f2|f4e2|g6-|g6|
b2d'2c'2|a3gf2|a2c'3b|g3fe2|
d4c2|A3GF2|G6-|G6:|

